X:1
T:Tunguska, 87.87 D
T:Tunguska, 87.87 D
T:William Thomas Giffe, 1900
T:Public Domain Courtesy of the Cyber Hymnal™
C:William Thomas Giffe, 1900
Z:Public Domain
Z:Courtesy of the Cyber Hymnal™
%%score ( 1 2 ) ( 3 4 )
L:1/8
Q:1/4=97
M:3/4
K:C
V:1 treble 
V:2 treble 
V:3 bass 
V:4 bass 
V:1
 [EG][EG] | [Ec]3 [Ec] [^DB][DA] | [EG]2 [CE]2 [EG][EG] | [DG]3 [DA] [DG][D^F] | [DG]4 [EG][EG] | %5
 [FA]3 [F^G] [FA][FG] | [FA]2 [EG]2 [EG][Ec] | [FB]3 [FB] [FA][FB] | [Ec]4 [Ec][Gc] | %9
 [Fd]3 [FG] [FA][FG] | [EG] [Ec]3 [Ec][Ec] | [Fd]3 [Ec] [FB][^FA] | [GB]4 GG | %13
 [Ge]3 [Fd] [Ec][EG] | [FB]2 [FA]2 [FA]>[FA] | [EG]3 [Ec] [Fd]>[FB] | [Ec]4 |] %17
V:2
 x2 | x6 | x6 | x6 | x6 | x6 | x6 | x6 | x6 | x6 | x6 | x6 | x4 GG | x6 | x6 | x6 | x4 |] %17
V:3
 [C,C][C,C] | [C,G,]3 [C,G,] [C,A,][C,C] | [C,C]2 [C,G,]2 [C,C][C,C] | [D,B,]3 [D,C] [D,B,][D,A,] | %4
 [G,,G,B,]4 [C,C][C,C] | [F,C]3 [F,B,] [F,C][F,B,] | [C,C]2 [C,C]2 [C,G,][C,G,] | G,3 G, G,G, | %8
 [C,G,]4 [C,G,][E,C] | [G,B,]3 [G,B,] [G,B,][G,B,] | [C,C] [C,G,]3 [C,G,][C,G,] | %11
 [B,,G,]3 [C,G,] [D,G,][D,A,] | G,4 [G,B,][G,B,] | [C,C]3 [C,G,] [C,G,][C,C] | %14
 [F,C]2 [F,C]2 [F,C]>[F,C] | [G,C]3 [G,C] [G,,G,B,]>[G,,G,] | [C,G,]4 |] %17
V:4
 x2 | x6 | x6 | x6 | x6 | x6 | x6 | G,3 G, G,G, | x6 | x6 | x6 | x6 | G,4 x2 | x6 | x6 | x6 | x4 |] %17

